src/assets/svgs/logo-name.svg

<svg viewBox="0 0 157.9983 46.7405" xmlns="http://www.w3.org/2000/svg"><g fill="#2b2129"><path d="m33.0713 11.29-8.9153 1.3259c-1.0241-5.12-4.5177-7.0482-7.7706-7.0482-4.2771 0-7.7707 1.867-7.7707 6.1447 0 3.7341 3.6142 7.8306 9.0354 9.2165l5.7229 1.3247c5.843 1.4464 10.843 5.7836 10.9036 10.7836.06 6.9271-5.783 13.493-16.0842 13.493-9.3371-.0002-16.0236-2.3494-18.1924-9.3965l8.6747-2.4106c1.2048 4.0965 5.723 7.4706 9.6383 7.4706 3.8553 0 8.373-1.9282 8.373-5.6024a6.9888 6.9888 0 0 0 -5.3006-6.9282l-6.6865-1.7471c-8.4942-1.8071-13.7348-6.3847-13.7348-12.8306 0-8.8554 6.9877-13.6142 14.8189-13.6142 9.157 0 15.0595 1.9882 17.2883 9.8188z"/><path d="m52.7673 46.3843c-8.6742 0-14.3971-6.0836-14.3971-14.0965 0-9.6377 6.5664-15.9624 15.7224-15.9624 5.3612 0 9.7588 3.1917 10.1206 7.7106l-5.3012 1.024c0-2.4094 0-5.9035-5.4818-5.9035-4.5182 0-8.253 3.9764-8.253 9.7588 0 7.3495 4.1565 11.9883 10 11.9883a13.7112 13.7112 0 0 0 8.0718-2.6506l.4217 3.1918c-1.4457 2.4101-5.2407 4.9395-10.9034 4.9395z"/><path d="m79.9938 30.9037v15.5412h-7.2288v-26.566l5.4218-3.6141 1.6265 7.6506c1.3853-3.9753 4.2164-6.9271 7.7106-6.9271a4.5034 4.5034 0 0 1 4.5176 4.6988v.4812l-6.4453 3.8553c-.2412-1.6259-.7229-3.8553-2.2894-3.7341-2.2288 2.2882-3.0724 4.9388-3.313 8.6142z"/><path d="m109.0269 16.6816c-8.9759 0-15.1806 6.0836-15.1806 15.12 0 9.2765 6.0841 14.8188 15.1806 14.9388 9.0959-.1811 15.18-5.7223 15.18-15.06-.0599-8.4929-5.7229-14.9988-15.18-14.9988zm0 27.1672c-5.3618 0-6.8071-5.6624-6.8071-12.1083s1.4453-12.2883 6.8071-12.2283c5.3006.06 6.8071 5.8436 6.8071 12.2283 0 6.4459-1.5065 12.1083-6.8071 12.1083z"/><path d="m132.217 4.82 7.229-4.82-.061 46.445h-7.168z"/><path d="m150.769 4.82 7.229-4.82-.061 46.445h-7.168z"/></g></svg>

<svg id="Layer_1" data-name="Layer 1" xmlns="http://www.w3.org/2000/svg" viewBox="0 0 157.9983 46.7405">
  <g id="type">
    <path id="type_PathItem_" data-name="type &lt;PathItem&gt;" d="M33.0713,11.29,24.156,12.6159c-1.0241-5.12-4.5177-7.0482-7.7706-7.0482-4.2771,0-7.7707,1.867-7.7707,6.1447,0,3.7341,3.6142,7.8306,9.0354,9.2165l5.7229,1.3247C29.216,23.7,34.216,28.0372,34.2766,33.0372c.06,6.9271-5.783,13.493-16.0842,13.493C8.8553,46.53,2.1688,44.1808,0,37.1337l8.6747-2.4106c1.2048,4.0965,5.723,7.4706,9.6383,7.4706,3.8553,0,8.373-1.9282,8.373-5.6024a6.9888,6.9888,0,0,0-5.3006-6.9282L14.6989,27.916C6.2047,26.1089.9641,21.5313.9641,15.0854.9641,6.23,7.9518,1.4712,15.783,1.4712,24.94,1.4712,30.8425,3.4594,33.0713,11.29Z" style="fill: #2b2129"/>
    <path id="type_PathItem_2" data-name="type &lt;PathItem&gt;" d="M52.7673,46.3843c-8.6742,0-14.3971-6.0836-14.3971-14.0965,0-9.6377,6.5664-15.9624,15.7224-15.9624,5.3612,0,9.7588,3.1917,10.1206,7.7106L58.912,25.06c0-2.4094,0-5.9035-5.4818-5.9035-4.5182,0-8.253,3.9764-8.253,9.7588,0,7.3495,4.1565,11.9883,10,11.9883a13.7112,13.7112,0,0,0,8.0718-2.6506l.4217,3.1918C62.225,43.8549,58.43,46.3843,52.7673,46.3843Z" style="fill: #2b2129"/>
    <path id="type_PathItem_3" data-name="type &lt;PathItem&gt;" d="M79.9938,30.9037V46.4449H72.765V19.8789l5.4218-3.6141,1.6265,7.6506c1.3853-3.9753,4.2164-6.9271,7.7106-6.9271a4.5034,4.5034,0,0,1,4.5176,4.6988v.4812l-6.4453,3.8553c-.2412-1.6259-.7229-3.8553-2.2894-3.7341C81.078,24.5777,80.2344,27.2283,79.9938,30.9037Z" style="fill: #2b2129"/>
    <path id="type_CompoundPathItem_" data-name="type &lt;CompoundPathItem&gt;" d="M109.0269,16.6816c-8.9759,0-15.1806,6.0836-15.1806,15.12,0,9.2765,6.0841,14.8188,15.1806,14.9388,9.0959-.1811,15.18-5.7223,15.18-15.06C124.147,23.1875,118.484,16.6816,109.0269,16.6816Zm0,27.1672c-5.3618,0-6.8071-5.6624-6.8071-12.1083s1.4453-12.2883,6.8071-12.2283c5.3006.06,6.8071,5.8436,6.8071,12.2283C115.834,38.1864,114.3275,43.8488,109.0269,43.8488Z" style="fill: #2b2129"/>
    <polygon id="type_PathItem_4" data-name="type &lt;PathItem&gt;" points="132.217 4.82 139.446 0 139.385 46.445 132.217 46.445 132.217 4.82" style="fill: #2b2129"/>
    <polygon id="type_PathItem_5" data-name="type &lt;PathItem&gt;" points="150.769 4.82 157.998 0 157.937 46.445 150.769 46.445 150.769 4.82" style="fill: #2b2129"/>
  </g>
</svg>
